X: 109
T: Lan lan jun ma The roan horse
L: 1/8
M: 2/4
K: C
dd2c [I:setbarnb 1]| 
e d/ e/g2 | 
c> d d g | 
d2c e | 
A d/ c/ A c | 
d c A c | 
d3c | 
d> eg2 | 
G3A/ G/ | 
E2G A | 
c> d e g | 
d2c e | 
A d/ c/ A G | 
E D E G | 
A3d/ c/ | 
A4 |]

@@@ Tune index: 8777
